gama.ui.shared/icons_svg/dark/overlays/small.exp.batch.green.svg

<svg height="16" viewBox="-606.274 -3115.658 16 16" width="16" xmlns="http://www.w3.org/2000/svg"><g fill="none"><path d="m-602.0474-3112.324h-1.89336c-.18664 0-.33334-.1468-.33334-.3335 0-.1865.1467-.3333.33334-.3333h2.66666c.1867 0 .33334.1468.33334.3333v2.6667c0 .1868-.14664.3333-.33334.3333-.18666 0-.3333-.1465-.3333-.3333v-1.8332c-1.2467 1-2 2.52-2 4.1665 0 2.9467 2.38664 5.3335 5.3333 5.3335 2.9467 0 5.33334-2.3868 5.33334-5.3335 0-2.9465-2.21334-5.1665-5.02-5.3265-.18664-.0135-.32664-.1668-.31334-.3535.01334-.1865.1667-.3265.3467-.3133 3.16664.18 5.6533 2.8068 5.6533 5.9868s-2.68666 6-6 6c-3.3133 0-6-2.68-6-5.9935 0-1.8465.83334-3.5465 2.2267-4.6665z" fill="#8eed62"/><path d="m-602.0474-3112.324h-1.89336c-.18664 0-.33334-.1468-.33334-.3335 0-.1865.1467-.3333.33334-.3333h2.66666c.1867 0 .33334.1468.33334.3333v2.6667c0 .1868-.14664.3333-.33334.3333-.18666 0-.3333-.1465-.3333-.3333v-1.8332c-1.2467 1-2 2.52-2 4.1665 0 2.9467 2.38664 5.3335 5.3333 5.3335 2.9467 0 5.33334-2.3868 5.33334-5.3335 0-2.9465-2.21334-5.1665-5.02-5.3265-.18664-.0135-.32664-.1668-.31334-.3535.01334-.1865.1667-.3265.3467-.3133 3.16664.18 5.6533 2.8068 5.6533 5.9868s-2.68666 6-6 6c-3.3133 0-6-2.68-6-5.9935 0-1.8465.83334-3.5465 2.2267-4.6665z" stroke="#508034" stroke-linejoin="round" stroke-width=".25"/></g></svg>

<?xml version="1.0" encoding="UTF-8" standalone="no"?>
<!DOCTYPE svg PUBLIC "-//W3C//DTD SVG 1.1//EN" "http://www.w3.org/Graphics/SVG/1.1/DTD/svg11.dtd">
<svg xmlns="http://www.w3.org/2000/svg" xmlns:xl="http://www.w3.org/1999/xlink" version="1.1" xmlns:dc="http://purl.org/dc/elements/1.1/" viewBox="-606.2741 -3115.658 16.000008 16.000008" width="16.000008" height="16.000008">
  <defs/>
  <g id="SOURCES" stroke-opacity="1" fill="none" stroke="none" fill-opacity="1" stroke-dasharray="none">
    <title>SOURCES</title>
    <g id="SOURCES_Dark">
      <title>Dark</title>
      <g id="Graphic_11150"/>
      <g id="Graphic_11149">
        <path d="M -602.0474 -3112.324 L -603.94076 -3112.324 C -604.1274 -3112.324 -604.2741 -3112.4708 -604.2741 -3112.6575 C -604.2741 -3112.844 -604.1274 -3112.9908 -603.94076 -3112.9908 L -601.2741 -3112.9908 C -601.0874 -3112.9908 -600.94076 -3112.844 -600.94076 -3112.6575 L -600.94076 -3109.9908 C -600.94076 -3109.804 -601.0874 -3109.6575 -601.2741 -3109.6575 C -601.46076 -3109.6575 -601.6074 -3109.804 -601.6074 -3109.9908 L -601.6074 -3111.824 C -602.8541 -3110.824 -603.6074 -3109.304 -603.6074 -3107.6575 C -603.6074 -3104.7108 -601.22076 -3102.324 -598.2741 -3102.324 C -595.3274 -3102.324 -592.94076 -3104.7108 -592.94076 -3107.6575 C -592.94076 -3110.604 -595.1541 -3112.824 -597.96076 -3112.984 C -598.1474 -3112.9975 -598.2874 -3113.1508 -598.2741 -3113.3375 C -598.26076 -3113.524 -598.1074 -3113.664 -597.9274 -3113.6508 C -594.76076 -3113.4708 -592.2741 -3110.844 -592.2741 -3107.664 C -592.2741 -3104.484 -594.96076 -3101.664 -598.2741 -3101.664 C -601.5874 -3101.664 -604.2741 -3104.344 -604.2741 -3107.6575 C -604.2741 -3109.504 -603.44076 -3111.204 -602.0474 -3112.324 Z" fill="#8eed62"/>
        <path d="M -602.0474 -3112.324 L -603.94076 -3112.324 C -604.1274 -3112.324 -604.2741 -3112.4708 -604.2741 -3112.6575 C -604.2741 -3112.844 -604.1274 -3112.9908 -603.94076 -3112.9908 L -601.2741 -3112.9908 C -601.0874 -3112.9908 -600.94076 -3112.844 -600.94076 -3112.6575 L -600.94076 -3109.9908 C -600.94076 -3109.804 -601.0874 -3109.6575 -601.2741 -3109.6575 C -601.46076 -3109.6575 -601.6074 -3109.804 -601.6074 -3109.9908 L -601.6074 -3111.824 C -602.8541 -3110.824 -603.6074 -3109.304 -603.6074 -3107.6575 C -603.6074 -3104.7108 -601.22076 -3102.324 -598.2741 -3102.324 C -595.3274 -3102.324 -592.94076 -3104.7108 -592.94076 -3107.6575 C -592.94076 -3110.604 -595.1541 -3112.824 -597.96076 -3112.984 C -598.1474 -3112.9975 -598.2874 -3113.1508 -598.2741 -3113.3375 C -598.26076 -3113.524 -598.1074 -3113.664 -597.9274 -3113.6508 C -594.76076 -3113.4708 -592.2741 -3110.844 -592.2741 -3107.664 C -592.2741 -3104.484 -594.96076 -3101.664 -598.2741 -3101.664 C -601.5874 -3101.664 -604.2741 -3104.344 -604.2741 -3107.6575 C -604.2741 -3109.504 -603.44076 -3111.204 -602.0474 -3112.324 Z" stroke="#508034" stroke-linecap="butt" stroke-linejoin="round" stroke-width=".25"/>
      </g>
    </g>
  </g>
</svg>
